Product design LandingPage/branding.svg

<svg xmlns="http://www.w3.org/2000/svg" width="63.104" height="61" viewBox="0 0 63.104 61">
  <g id="branding" transform="translate(-1184 -442)">
    <path id="Path_7" data-name="Path 7" d="M882.247,143.516l-11.8-11.906a2.106,2.106,0,0,0-2.965,0l-29.869,29.764a2.1,2.1,0,0,0,0,2.966l11.905,11.9a2.116,2.116,0,0,0,.686.454,2.11,2.11,0,0,0,2.28-.454l5.953-5.953,17.858-17.858,5.953-5.953a2.1,2.1,0,0,0,0-2.965Zm-7.446,4.459-1.494-1.494a2.1,2.1,0,1,0-2.966,2.987l1.494,1.494-2.987,2.966-4.459-4.46a2.1,2.1,0,0,0-2.966,2.966l4.459,4.459L862.9,159.88l-1.472-1.493a2.112,2.112,0,1,0-2.987,2.987l1.493,1.472-2.966,2.987-4.48-4.459a2.1,2.1,0,0,0-2.966,2.966l4.459,4.459-2.965,2.987-8.94-8.94,26.777-26.777,8.94,8.94Z" transform="translate(347 311)" fill="#ff3343"/>
    <path id="Path_8" data-name="Path 8" d="M860.138,192H898a2.1,2.1,0,0,0,2.1-2.1V152.034a2.1,2.1,0,0,0-2.1-2.1H885.379a2.1,2.1,0,0,0-2.1,2.1v23.138H860.138a2.1,2.1,0,0,0-2.1,2.1V189.9a2.1,2.1,0,0,0,2.1,2.1Zm2.1-12.621h4.207v2.1a2.1,2.1,0,0,0,4.207,0v-2.1h4.207v2.1a2.1,2.1,0,0,0,4.207,0v-2.1h4.207v2.1a2.1,2.1,0,0,0,4.207,0v-2.1h2.1a2.1,2.1,0,1,0,0-4.207h-2.1v-4.206h2.1a2.1,2.1,0,1,0,0-4.207h-2.1v-4.207h2.1a2.1,2.1,0,1,0,0-4.207h-2.1v-4.207H895.9v33.655H862.241Z" transform="translate(347 311)" fill="#ff3343"/>
  </g>
</svg>

<svg width="1000" height="428" viewBox="0 0 1000 428" fill="none" xmlns="http://www.w3.org/2000/svg">

    <path d="M882.247 143.516L870.446 131.61C870.25 131.415 870.017 131.261 869.761 131.156C869.504 131.051 869.23 130.998 868.953 131C868.401 131.002 867.872 131.221 867.481 131.61L837.612 161.374C837.22 161.768 837 162.301 837 162.857C837 163.412 837.22 163.946 837.612 164.34L849.517 176.245C849.714 176.44 849.947 176.594 850.203 176.699C850.459 176.804 850.734 176.857 851.011 176.855C851.562 176.853 852.091 176.634 852.483 176.245L858.436 170.292L876.294 152.434L882.247 146.481C882.639 146.087 882.859 145.554 882.859 144.998C882.859 144.443 882.639 143.91 882.247 143.516V143.516ZM874.801 147.975L873.307 146.481C872.913 146.09 872.38 145.87 871.824 145.87C871.269 145.87 870.735 146.09 870.341 146.481C870.144 146.677 869.988 146.91 869.881 147.166C869.774 147.422 869.719 147.697 869.719 147.975C869.719 148.253 869.774 148.527 869.881 148.784C869.988 149.04 870.144 149.273 870.341 149.468L871.835 150.962L868.848 153.928L864.389 149.468C863.986 149.124 863.469 148.944 862.939 148.964C862.41 148.985 861.908 149.204 861.533 149.579C861.158 149.953 860.939 150.455 860.918 150.985C860.898 151.514 861.078 152.032 861.423 152.434L865.882 156.893L862.895 159.88L861.423 158.387C861.027 157.991 860.489 157.768 859.929 157.768C859.369 157.768 858.832 157.991 858.436 158.387C858.04 158.783 857.817 159.32 857.817 159.88C857.817 160.441 858.04 160.978 858.436 161.374L859.929 162.846L856.963 165.833L852.483 161.374C852.089 160.982 851.556 160.762 851 160.762C850.444 160.762 849.911 160.982 849.517 161.374C849.125 161.768 848.906 162.301 848.906 162.857C848.906 163.412 849.125 163.946 849.517 164.34L853.976 168.799L851.011 171.786L842.071 162.846L868.848 136.069L877.788 145.009L874.801 147.975Z" fill="#FF3343"></path>
    <path d="M860.138 192H898C898.558 192 899.093 191.778 899.487 191.384C899.882 190.989 900.104 190.454 900.104 189.897V152.034C900.104 151.477 899.882 150.942 899.487 150.547C899.093 150.153 898.558 149.931 898 149.931H885.379C884.822 149.931 884.286 150.153 883.892 150.547C883.498 150.942 883.276 151.477 883.276 152.034V175.172H860.138C859.58 175.172 859.045 175.394 858.651 175.788C858.256 176.183 858.035 176.718 858.035 177.276V189.897C858.035 190.454 858.256 190.989 858.651 191.384C859.045 191.778 859.58 192 860.138 192V192ZM862.241 179.379H866.448V181.483C866.448 182.041 866.67 182.576 867.064 182.97C867.459 183.365 867.994 183.586 868.552 183.586C869.11 183.586 869.645 183.365 870.039 182.97C870.434 182.576 870.655 182.041 870.655 181.483V179.379H874.862V181.483C874.862 182.041 875.084 182.576 875.478 182.97C875.873 183.365 876.408 183.586 876.966 183.586C877.523 183.586 878.058 183.365 878.453 182.97C878.847 182.576 879.069 182.041 879.069 181.483V179.379H883.276V181.483C883.276 182.041 883.498 182.576 883.892 182.97C884.286 183.365 884.822 183.586 885.379 183.586C885.937 183.586 886.472 183.365 886.867 182.97C887.261 182.576 887.483 182.041 887.483 181.483V179.379H889.586C890.144 179.379 890.679 179.158 891.074 178.763C891.468 178.369 891.69 177.834 891.69 177.276C891.69 176.718 891.468 176.183 891.074 175.788C890.679 175.394 890.144 175.172 889.586 175.172H887.483V170.966H889.586C890.144 170.966 890.679 170.744 891.074 170.349C891.468 169.955 891.69 169.42 891.69 168.862C891.69 168.304 891.468 167.769 891.074 167.375C890.679 166.98 890.144 166.759 889.586 166.759H887.483V162.552H889.586C890.144 162.552 890.679 162.33 891.074 161.936C891.468 161.541 891.69 161.006 891.69 160.448C891.69 159.89 891.468 159.355 891.074 158.961C890.679 158.566 890.144 158.345 889.586 158.345H887.483V154.138H895.897V187.793H862.241V179.379Z" fill="#FF3343"></path>

</svg>
